src/assets/duotone/BoxRemove.svg

<svg width="24" height="24" viewBox="0 0 24 24"  xmlns="http://www.w3.org/2000/svg">
<path d="M21.6799 15.3202C20.7899 14.4302 19.6099 13.9802 18.4399 14.0002C17.3099 14.0102 16.1799 14.4602 15.3199 15.3202C14.7199 15.9102 14.3299 16.6501 14.1399 17.4201C14.0299 17.8401 13.9899 18.2702 14.0199 18.7002V18.7502C14.0199 18.8202 14.0299 18.8802 14.0399 18.9602C14.0399 18.9602 14.0399 18.9601 14.0499 18.9701V19.0002C14.1399 19.9802 14.5599 20.9301 15.3199 21.6801C16.4799 22.8401 18.1099 23.2301 19.5799 22.8601C20.0199 22.7501 20.4499 22.5702 20.8499 22.3302C21.1499 22.1602 21.4299 21.9401 21.6799 21.6801C22.4299 20.9301 22.8599 19.9801 22.9499 18.9901C22.9599 18.9901 22.9599 18.9702 22.9599 18.9602C22.9799 18.8902 22.9799 18.8101 22.9799 18.7401C22.9799 18.7301 22.9899 18.7102 22.9899 18.6902C23.0499 17.4802 22.6099 16.2402 21.6799 15.3202ZM20.2299 20.2102C19.9399 20.5002 19.4699 20.5002 19.1699 20.2102L18.5099 19.5501L17.8299 20.2301C17.5299 20.5301 17.0599 20.5301 16.7699 20.2301C16.4699 19.9401 16.4699 19.4701 16.7699 19.1701L17.4499 18.4901L16.7899 17.8302C16.4999 17.5302 16.4999 17.0602 16.7899 16.7702C17.0899 16.4702 17.5599 16.4702 17.8599 16.7702L18.5099 17.4301L19.1399 16.7901C19.4399 16.5001 19.9099 16.5001 20.2099 16.7901C20.4999 17.0901 20.4999 17.5601 20.2099 17.8601L19.5699 18.4901L20.2299 19.1402C20.5299 19.4402 20.5299 19.9102 20.2299 20.2102Z" />
<path opacity="0.4" d="M19.3499 5.65995L13.0599 2.27C12.3999 1.91 11.5999 1.91 10.9299 2.27L4.63992 5.65995C4.17992 5.90995 3.8999 6.39998 3.8999 6.93998C3.8999 7.47998 4.17992 7.96995 4.63992 8.21995L10.9299 11.61C11.2599 11.79 11.6299 11.88 11.9899 11.88C12.3499 11.88 12.7199 11.79 13.0499 11.61L19.3399 8.21995C19.7999 7.96995 20.0799 7.47998 20.0799 6.93998C20.0999 6.39998 19.8099 5.90995 19.3499 5.65995Z" />
<path opacity="0.4" d="M9.90021 12.7899L4.0502 9.85989C3.6002 9.62989 3.08021 9.65989 2.65021 9.91989C2.22021 10.1799 1.97021 10.6399 1.97021 11.1399V16.6699C1.97021 17.6299 2.5002 18.4899 3.3602 18.9199L9.21021 21.8399C9.4102 21.9399 9.63022 21.9899 9.85022 21.9899C10.1102 21.9899 10.3702 21.9199 10.6002 21.7699C11.0302 21.5099 11.2802 21.0499 11.2802 20.5499V15.0199C11.2902 14.0799 10.7602 13.2199 9.90021 12.7899Z" />
<path opacity="0.4" d="M22.03 11.1502V15.7401C22.02 15.7301 22.01 15.7101 22 15.7001C22 15.6901 21.99 15.6801 21.98 15.6701C21.94 15.6101 21.89 15.5501 21.84 15.5001C21.83 15.4901 21.82 15.4702 21.81 15.4602C21 14.5602 19.81 14.0001 18.5 14.0001C17.24 14.0001 16.09 14.5201 15.27 15.3601C14.48 16.1701 14 17.2801 14 18.5001C14 19.3401 14.24 20.1401 14.65 20.8201C14.82 21.1101 15.03 21.3701 15.26 21.6101L14.79 21.8501C14.59 21.9501 14.37 22.0001 14.15 22.0001C13.89 22.0001 13.63 21.9302 13.39 21.7802C12.97 21.5202 12.71 21.0601 12.71 20.5601V15.0401C12.71 14.0801 13.24 13.2201 14.1 12.7901L19.95 9.87013C20.4 9.64013 20.92 9.66012 21.35 9.93012C21.77 10.1901 22.03 10.6502 22.03 11.1502Z" />
</svg>

<?xml version="1.0" encoding="UTF-8"?>
<svg width="24" height="24" viewBox="0 0 24 24" xmlns="http://www.w3.org/2000/svg">
 <path d="m21.68 15.32c-0.89-0.89-2.07-1.34-3.24-1.32-1.13 0.01-2.26 0.46-3.12 1.32-0.6 0.59-0.99 1.3299-1.18 2.0999-0.11 0.42-0.15 0.8501-0.12 1.2801v0.05c0 0.07 0.01 0.13 0.02 0.21 0 0 0-1e-4 0.01 0.0099v0.0301c0.09 0.98 0.51 1.9299 1.27 2.6799 1.16 1.16 2.79 1.55 4.26 1.18 0.44-0.11 0.87-0.2899 1.27-0.5299 0.3-0.17 0.58-0.3901 0.83-0.6501 0.75-0.75 1.18-1.7 1.27-2.69 0.01 0 0.01-0.0199 0.01-0.0299 0.02-0.07 0.02-0.1501 0.02-0.2201 0-0.01 0.01-0.0299 0.01-0.0499 0.06-1.21-0.38-2.45-1.31-3.37zm-1.45 4.89c-0.29 0.29-0.76 0.29-1.06 0l-0.66-0.6601-0.68 0.68c-0.3 0.3-0.77 0.3-1.06 0-0.3-0.29-0.3-0.76 0-1.06l0.68-0.68-0.66-0.6599c-0.29-0.3-0.29-0.77 0-1.06 0.3-0.3 0.77-0.3 1.07 0l0.65 0.6599 0.63-0.64c0.3-0.29 0.77-0.29 1.07 0 0.29 0.3 0.29 0.77 0 1.07l-0.64 0.63 0.66 0.6501c0.3 0.3 0.3 0.77 0 1.07z"/>
 <path d="m19.35 5.66-6.29-3.39c-0.66-0.36-1.46-0.36-2.13 0l-6.29 3.39c-0.46 0.25-0.74002 0.74003-0.74002 1.28s0.28002 1.03 0.74002 1.28l6.29 3.39c0.33 0.18 0.7 0.27 1.06 0.27s0.73-0.09 1.06-0.27l6.29-3.39c0.46-0.25 0.74-0.73997 0.74-1.28 0.02-0.54-0.27-1.03-0.73-1.28z" opacity=".4"/>
 <path d="m9.9002 12.79-5.85-2.93c-0.45-0.23-0.96999-0.2-1.4 0.06-0.43 0.26001-0.68 0.72001-0.68 1.22v5.53c0 0.96 0.52999 1.82 1.39 2.25l5.85 2.92c0.19999 0.1 0.42001 0.15 0.64001 0.15 0.25998 0 0.51998-0.07 0.74998-0.22 0.43-0.26 0.68-0.72 0.68-1.22v-5.53c0.01-0.94-0.52-1.8-1.38-2.23z" opacity=".4"/>
 <path d="m22.03 11.15v4.5899c-0.01-0.01-0.02-0.03-0.03-0.04 0-0.01-0.01-0.02-0.02-0.03-0.04-0.06-0.09-0.12-0.14-0.17-0.01-0.01-0.02-0.0299-0.03-0.0399-0.81-0.9-2-1.4601-3.31-1.4601-1.26 0-2.41 0.52-3.23 1.36-0.79 0.81-1.27 1.92-1.27 3.14 0 0.84 0.24 1.64 0.65 2.32 0.17 0.29 0.38 0.55 0.61 0.79l-0.47 0.24c-0.2 0.1-0.42 0.15-0.64 0.15-0.26 0-0.52-0.0699-0.76-0.2199-0.42-0.26-0.68-0.7201-0.68-1.2201v-5.52c0-0.96 0.53-1.82 1.39-2.25l5.85-2.92c0.45-0.23 0.97-0.21001 1.4 0.05999 0.42 0.25998 0.68 0.72008 0.68 1.2201z" opacity=".4"/>
</svg>
